svg/fluentui-system-icons/ic_fluent_calendar_lock_32_regular.svg

<svg width="32" height="32" viewBox="0 0 32 32" fill="none" xmlns="http://www.w3.org/2000/svg">
<path d="M7.5 3C5.01472 3 3 5.01472 3 7.5V24.5C3 26.9853 5.01472 29 7.5 29H16.126C16.0438 28.6804 16 28.3453 16 28V27H7.5C6.11929 27 5 25.8807 5 24.5V11H27V14.9996C27.988 15.7417 28.6921 16.8413 28.9204 18.1064C28.947 18.1127 28.9736 18.1192 29 18.126V7.5C29 5.01472 26.9853 3 24.5 3H7.5ZM5 7.5C5 6.11929 6.11929 5 7.5 5H24.5C25.8807 5 27 6.11929 27 7.5V9H5V7.5ZM20.5 19.5H20C18.6193 19.5 17.5 20.6193 17.5 22V28C17.5 29.3807 18.6193 30.5 20 30.5H28C29.3807 30.5 30.5 29.3807 30.5 28V22C30.5 20.6193 29.3807 19.5 28 19.5H27.5V19C27.5 17.067 25.933 15.5 24 15.5C22.067 15.5 20.5 17.067 20.5 19V19.5ZM22.5 19C22.5 18.1716 23.1716 17.5 24 17.5C24.8284 17.5 25.5 18.1716 25.5 19V19.5H22.5V19ZM26 25C26 26.1046 25.1046 27 24 27C22.8954 27 22 26.1046 22 25C22 23.8954 22.8954 23 24 23C25.1046 23 26 23.8954 26 25Z" fill="#212121"/>
</svg>

<svg xmlns="http://www.w3.org/2000/svg" width="32" height="32"><path d="M7.5 3A4.5 4.5 0 0 0 3 7.5v17A4.5 4.5 0 0 0 7.5 29h8.626A4.01 4.01 0 0 1 16 28v-1H7.5A2.5 2.5 0 0 1 5 24.5V11h22v4a5 5 0 0 1 1.92 3.106 4.2 4.2 0 0 1 .08.02V7.5A4.5 4.5 0 0 0 24.5 3h-17ZM5 7.5A2.5 2.5 0 0 1 7.5 5h17A2.5 2.5 0 0 1 27 7.5V9H5V7.5Zm15.5 12H20a2.5 2.5 0 0 0-2.5 2.5v6a2.5 2.5 0 0 0 2.5 2.5h8a2.5 2.5 0 0 0 2.5-2.5v-6a2.5 2.5 0 0 0-2.5-2.5h-.5V19a3.5 3.5 0 1 0-7 0v.5Zm2-.5a1.5 1.5 0 0 1 3 0v.5h-3V19Zm3.5 6a2 2 0 1 1-4 0 2 2 0 0 1 4 0Z"/></svg>
